packages/kaspersky-hexa-ui-icons/src/iconsSVGs/16/Flag.svg

<svg width="16" height="16" viewBox="0 0 16 16" fill="none" xmlns="http://www.w3.org/2000/svg">
<path fill-rule="evenodd" clip-rule="evenodd" d="M3.44883 0.998535C3.08984 0.998535 2.79883 1.28955 2.79883 1.64854V14.3513C2.79883 14.7103 3.08984 15.0013 3.44883 15.0013C3.80781 15.0013 4.09883 14.7103 4.09883 14.3513V8.30982H7.75873V9.10828C7.75873 9.46726 8.04974 9.75828 8.40873 9.75828H13.5509C13.9098 9.75828 14.2009 9.46726 14.2009 9.10828V3.06082C14.2009 2.70183 13.9098 2.41082 13.5509 2.41082H9.05873V1.64854C9.05873 1.28955 8.76771 0.998535 8.40873 0.998535H3.44883ZM4.09883 7.00982H8.40873C8.76771 7.00982 9.05873 7.30083 9.05873 7.65982V8.45828H12.9009V3.71082H8.40873C8.04974 3.71082 7.75873 3.4198 7.75873 3.06082V2.29854H4.09883V7.00982Z" fill="black"/>
</svg>

<svg xmlns="http://www.w3.org/2000/svg" width="16" height="16" fill="none" viewBox="0 0 16 16"><path fill="#000" fill-rule="evenodd" d="M3.4488.9985a.65.65 0 0 0-.65.65v12.7028a.65.65 0 1 0 1.3 0V8.3098h3.66v.7985c0 .359.291.65.65.65h5.1421a.65.65 0 0 0 .65-.65V3.0608a.65.65 0 0 0-.65-.65H9.0587v-.7623a.65.65 0 0 0-.65-.65zm.65 6.0113h4.31a.65.65 0 0 1 .65.65v.7985h3.8421V3.7108H8.4087a.65.65 0 0 1-.65-.65v-.7623H4.0988z"/></svg>
